assets/images/games.svg

<svg width="32" height="32" viewBox="0 0 32 32" fill="none" xmlns="http://www.w3.org/2000/svg">
<g clip-path="url(#clip0_15_1806)">
<path d="M29.4913 30.3593C29.0652 27.0662 28.3932 24.9353 28.3655 24.8451C28.2142 24.3738 27.8361 24.0116 27.359 23.8822C27.3328 23.8749 27.2339 23.8487 27.0681 23.808C28.3379 19.1956 29.5204 9.99273 21.7401 3.13745C18.2186 0.0349093 14.1284 0 13.9553 0C13.2324 0 12.6186 0.530909 12.5153 1.24655C12.2026 3.41818 11.4492 4.208 8.84988 5.08655L6.10079 6.016C5.82297 6.10909 5.58006 6.28509 5.40406 6.51927C4.1037 8.24873 4.1037 12.192 5.40406 13.9229C5.67897 14.288 6.10951 14.5033 6.56624 14.5033H12.7786C12.2332 15.8996 11.2542 16.8364 10.8019 17.2145C9.73424 17.3484 8.68842 17.5258 7.69061 17.744C7.28333 17.8342 6.93424 18.0931 6.73061 18.4567C6.68406 18.5382 5.61061 20.4931 5.61061 23.0618C5.61061 23.1971 5.61497 23.456 5.62224 23.7425C5.28915 23.8211 5.09133 23.8735 5.05352 23.8836C4.57352 24.0131 4.19388 24.3767 4.04406 24.8509C4.01497 24.9411 3.34733 27.0822 2.92115 30.3593C2.86733 30.7738 2.99533 31.1927 3.27024 31.5069C3.54661 31.8211 3.94515 32.0015 4.36261 32.0015H28.0484C28.4659 32.0015 28.8659 31.8211 29.1408 31.5069C29.4157 31.1927 29.5437 30.7738 29.4913 30.3593ZM8.5197 23.0604C8.5197 21.9607 8.80333 21.0095 9.02151 20.4393C9.83315 20.2822 10.6753 20.1542 11.5335 20.0567C11.7648 20.0305 11.9873 19.9491 12.1793 19.8182C12.3233 19.7222 15.6921 17.4153 16.0441 13.168C16.0775 12.7636 15.9408 12.3622 15.6644 12.0625C15.3881 11.7629 15.0012 11.5927 14.5939 11.5927H7.48406C7.26442 10.7258 7.29061 9.33236 7.56115 8.59055L9.77933 7.84C12.4324 6.94255 14.2928 5.77745 15.0957 3.04727C16.2652 3.26836 18.1372 3.84145 19.8142 5.31927C26.4921 11.2044 25.3284 19.28 24.2099 23.2131C22.1648 22.8553 19.3095 22.4887 16.2026 22.4887C13.2601 22.4887 10.5372 22.8189 8.51824 23.1578C8.51824 23.12 8.51824 23.0851 8.51824 23.0575L8.5197 23.0604ZM6.0557 29.0909C6.25061 27.9738 6.4557 27.0851 6.60552 26.5004C8.1997 26.1411 11.9946 25.4007 16.2055 25.4007C20.4164 25.4007 24.2142 26.1425 25.8084 26.5018C25.9582 27.0836 26.1648 27.9724 26.3597 29.0909H6.0557Z" fill="#3FA9F5"/>
</g>
<defs>
<clipPath id="clip0_15_1806">
<rect width="32" height="32" fill="white"/>
</clipPath>
</defs>
</svg>

<?xml version="1.0" encoding="UTF-8"?>
<svg id="Layer_1" xmlns="http://www.w3.org/2000/svg" version="1.1" viewBox="0 0 32 32">
  <!-- Generator: Adobe Illustrator 29.5.1, SVG Export Plug-In . SVG Version: 2.1.0 Build 141)  -->
  <defs>
    <style>
      .st0 {
        fill: #3fa9f5;
      }
    </style>
  </defs>
  <path class="st0" d="M29.49,30.36c-.43-3.29-1.1-5.42-1.13-5.51-.15-.47-.53-.83-1.01-.96-.03,0-.13-.03-.29-.07,1.27-4.61,2.45-13.82-5.33-20.67C18.22.03,14.13,0,13.96,0c-.72,0-1.34.53-1.44,1.25-.31,2.17-1.07,2.96-3.67,3.84l-2.75.93c-.28.09-.52.27-.7.5-1.3,1.73-1.3,5.67,0,7.4.27.37.71.58,1.16.58h6.21c-.55,1.4-1.52,2.33-1.98,2.71-1.07.13-2.11.31-3.11.53-.41.09-.76.35-.96.71-.05.08-1.12,2.04-1.12,4.61,0,.14,0,.39.01.68-.33.08-.53.13-.57.14-.48.13-.86.49-1.01.97-.03.09-.7,2.23-1.12,5.51-.05.41.07.83.35,1.15.28.31.67.49,1.09.49h23.69c.42,0,.82-.18,1.09-.49.27-.31.4-.73.35-1.15ZM8.52,23.06c0-1.1.28-2.05.5-2.62.81-.16,1.65-.29,2.51-.38.23-.03.45-.11.65-.24.14-.1,3.51-2.4,3.86-6.65.03-.4-.1-.81-.38-1.11-.28-.3-.66-.47-1.07-.47h-7.11c-.22-.87-.19-2.26.08-3l2.22-.75c2.65-.9,4.51-2.06,5.32-4.79,1.17.22,3.04.79,4.72,2.27,6.68,5.89,5.51,13.96,4.4,17.89-2.05-.36-4.9-.72-8.01-.72-2.94,0-5.67.33-7.68.67v-.1h0ZM6.06,29.09c.19-1.12.4-2.01.55-2.59,1.59-.36,5.39-1.1,9.6-1.1s8.01.74,9.6,1.1c.15.58.36,1.47.55,2.59H6.06Z"/>
</svg>
